treebolic-glue-swing/artwork/toolbar_zoomin.svg

<?xml version="1.0" encoding="UTF-8" standalone="no"?>
<!--
  - Copyright (c) 2022. Bernard Bou
  -->

<!-- Generator: Adobe Illustrator 14.0.0, SVG Export Plug-In . SVG Version: 6.00 Build 43363)  -->

<svg
   xmlns:dc="http://purl.org/dc/elements/1.1/"
   xmlns:cc="http://creativecommons.org/ns#"
   xmlns:rdf="http://www.w3.org/1999/02/22-rdf-syntax-ns#"
   xmlns:svg="http://www.w3.org/2000/svg"
   xmlns="http://www.w3.org/2000/svg"
   xmlns:sodipodi="http://sodipodi.sourceforge.net/DTD/sodipodi-0.dtd"
   xmlns:inkscape="http://www.inkscape.org/namespaces/inkscape"
   version="1.1"
   x="0px"
   y="0px"
   width="136.53334"
   height="136.53334"
   viewBox="0 0 128 128"
   enable-background="new 0 0 780 650"
   xml:space="preserve"
   id="svg2"
   inkscape:version="0.92.1 r15371"
   sodipodi:docname="toolbar_zoomin.svg"><metadata
     id="metadata1456"><rdf:RDF><cc:Work
         rdf:about=""><dc:format>image/svg+xml</dc:format><dc:type
           rdf:resource="http://purl.org/dc/dcmitype/StillImage" /></cc:Work></rdf:RDF></metadata><defs
     id="defs1454"><clipPath
       clipPathUnits="userSpaceOnUse"
       id="clipPath9180"><ellipse
         style="fill:#a9a9a9;fill-opacity:1;fill-rule:evenodd;stroke:none"
         id="path9182"
         transform="matrix(1.3993902,0,0,1.1907217,3.486295,1.0575123)"
         cx="43.980995"
         cy="52.105968"
         rx="43.980995"
         ry="52.026299" /></clipPath><clipPath
       clipPathUnits="userSpaceOnUse"
       id="clipPath9184"><ellipse
         style="fill:#a9a9a9;fill-opacity:1;fill-rule:evenodd;stroke:none"
         id="path9186"
         transform="matrix(0.1815424,0,0,0.1544719,788.01368,700.63965)"
         cx="43.980995"
         cy="52.105968"
         rx="43.980995"
         ry="52.026299" /></clipPath><clipPath
       id="clipPath9184-1"
       clipPathUnits="userSpaceOnUse"><ellipse
         transform="matrix(0.1815424,0,0,0.1544719,788.01368,700.63965)"
         id="path9186-3"
         style="fill:#a9a9a9;fill-opacity:1;fill-rule:evenodd;stroke:none"
         cx="43.980995"
         cy="52.105968"
         rx="43.980995"
         ry="52.026299" /></clipPath><clipPath
       id="clipPath9180-6"
       clipPathUnits="userSpaceOnUse"><ellipse
         transform="matrix(1.3993902,0,0,1.1907217,3.486295,1.0575123)"
         id="path9182-5"
         style="fill:#a9a9a9;fill-opacity:1;fill-rule:evenodd;stroke:none"
         cx="43.980995"
         cy="52.105968"
         rx="43.980995"
         ry="52.026299" /></clipPath><clipPath
       id="clipPath9184-9"
       clipPathUnits="userSpaceOnUse"><ellipse
         transform="matrix(0.1815424,0,0,0.1544719,788.01368,700.63965)"
         id="path9186-6"
         style="fill:#a9a9a9;fill-opacity:1;fill-rule:evenodd;stroke:none"
         cx="43.980995"
         cy="52.105968"
         rx="43.980995"
         ry="52.026299" /></clipPath><clipPath
       id="clipPath9180-9"
       clipPathUnits="userSpaceOnUse"><ellipse
         transform="matrix(1.3993902,0,0,1.1907217,3.486295,1.0575123)"
         id="path9182-57"
         style="fill:#a9a9a9;fill-opacity:1;fill-rule:evenodd;stroke:none"
         cx="43.980995"
         cy="52.105968"
         rx="43.980995"
         ry="52.026299" /></clipPath></defs><sodipodi:namedview
     pagecolor="#ffffff"
     bordercolor="#666666"
     borderopacity="1"
     objecttolerance="10"
     gridtolerance="10"
     guidetolerance="10"
     inkscape:pageopacity="0"
     inkscape:pageshadow="2"
     inkscape:window-width="1236"
     inkscape:window-height="848"
     id="namedview1452"
     showgrid="false"
     inkscape:zoom="2.6367187"
     inkscape:cx="44.313176"
     inkscape:cy="65.5247"
     inkscape:window-x="133"
     inkscape:window-y="71"
     inkscape:window-maximized="0"
     inkscape:current-layer="svg2" /><g
     id="Help"
     transform="matrix(7.7083383,0,0,7.7083383,-6070.7897,-5399.7099)"
     clip-path="url(#clipPath9184)"><path
       d="m 509.778,597.159 c -12.427,0 -22.5,10.074 -22.5,22.5 0,12.428 10.073,22.5 22.5,22.5 12.427,0 22.5,-10.072 22.5,-22.5 -10e-4,-12.426 -10.073,-22.5 -22.5,-22.5 z m -0.559,36.414 c -1.676,0 -3.054,-1.379 -3.054,-3.055 0,-1.676 1.378,-3.053 3.054,-3.053 1.677,0 3.054,1.377 3.054,3.053 0,1.676 -1.377,3.055 -3.054,3.055 z m 2.904,-11.791 c -0.892,1.305 -0.594,3.129 -3.052,3.129 -1.602,0 -2.385,-1.305 -2.385,-2.496 0,-4.432 6.519,-5.436 6.519,-9.086 0,-2.012 -1.34,-3.203 -3.576,-3.203 -4.767,0 -2.905,4.916 -6.518,4.916 -1.304,0 -2.421,-0.783 -2.421,-2.271 0,-3.65 4.172,-6.891 8.714,-6.891 4.769,0 9.46,2.197 9.46,7.449 10e-4,4.842 -5.55,6.703 -6.741,8.453 z"
       id="path695"
       inkscape:connector-curvature="0"
       style="fill:#333333" /></g><style
     id="style8"
     type="text/css">
      .Border { fill: lightGray; stroke: black; stroke-width: 4; }
      .Label { font-size:24; font-family:Arial; fill:black; }
   </style><style
     id="style8-7"
     type="text/css">
      .Border { fill: lightGray; stroke: black; stroke-width: 4; }
      .Label { font-size:24; font-family:Arial; fill:black; }
   </style><style
     id="style8-3"
     type="text/css">
      .Border { fill: lightGray; stroke: black; stroke-width: 4; }
      .Label { font-size:24; font-family:Arial; fill:black; }
   </style><style
     id="style8-6"
     type="text/css">
      .Border { fill: lightGray; stroke: black; stroke-width: 4; }
      .Label { font-size:24; font-family:Arial; fill:black; }
   </style><style
     type="text/css"
     id="style8-1">
      .Border { fill: lightGray; stroke: black; stroke-width: 4; }
      .Label { font-size:24; font-family:Arial; fill:black; }
   </style><style
     type="text/css"
     id="style8-7-0">
      .Border { fill: lightGray; stroke: black; stroke-width: 4; }
      .Label { font-size:24; font-family:Arial; fill:black; }
   </style><style
     type="text/css"
     id="style8-3-2">
      .Border { fill: lightGray; stroke: black; stroke-width: 4; }
      .Label { font-size:24; font-family:Arial; fill:black; }
   </style><style
     type="text/css"
     id="style8-6-7">
      .Border { fill: lightGray; stroke: black; stroke-width: 4; }
      .Label { font-size:24; font-family:Arial; fill:black; }
   </style><path
     style="fill:#333333;fill-opacity:1;fill-rule:evenodd;stroke:none"
     d=""
     id="path7612"
     inkscape:connector-curvature="0"
     clip-path="url(#clipPath9180)" /><style
     type="text/css"
     id="style8-5">
      .Border { fill: lightGray; stroke: black; stroke-width: 4; }
      .Label { font-size:24; font-family:Arial; fill:black; }
   </style><style
     type="text/css"
     id="style8-7-2">
      .Border { fill: lightGray; stroke: black; stroke-width: 4; }
      .Label { font-size:24; font-family:Arial; fill:black; }
   </style><style
     type="text/css"
     id="style8-3-7">
      .Border { fill: lightGray; stroke: black; stroke-width: 4; }
      .Label { font-size:24; font-family:Arial; fill:black; }
   </style><style
     type="text/css"
     id="style8-6-3">
      .Border { fill: lightGray; stroke: black; stroke-width: 4; }
      .Label { font-size:24; font-family:Arial; fill:black; }
   </style><style
     id="style8-1-4"
     type="text/css">
      .Border { fill: lightGray; stroke: black; stroke-width: 4; }
      .Label { font-size:24; font-family:Arial; fill:black; }
   </style><style
     id="style8-7-0-5"
     type="text/css">
      .Border { fill: lightGray; stroke: black; stroke-width: 4; }
      .Label { font-size:24; font-family:Arial; fill:black; }
   </style><style
     id="style8-3-2-7"
     type="text/css">
      .Border { fill: lightGray; stroke: black; stroke-width: 4; }
      .Label { font-size:24; font-family:Arial; fill:black; }
   </style><style
     id="style8-6-7-1"
     type="text/css">
      .Border { fill: lightGray; stroke: black; stroke-width: 4; }
      .Label { font-size:24; font-family:Arial; fill:black; }
   </style><g
     id="Help-8"
     transform="matrix(7.7083383,0,0,7.7083383,-5968.358,-5293.5573)"
     clip-path="url(#clipPath9184-1)"><path
       d="m 509.778,597.159 c -12.427,0 -22.5,10.074 -22.5,22.5 0,12.428 10.073,22.5 22.5,22.5 12.427,0 22.5,-10.072 22.5,-22.5 -10e-4,-12.426 -10.073,-22.5 -22.5,-22.5 z m -0.559,36.414 c -1.676,0 -3.054,-1.379 -3.054,-3.055 0,-1.676 1.378,-3.053 3.054,-3.053 1.677,0 3.054,1.377 3.054,3.053 0,1.676 -1.377,3.055 -3.054,3.055 z m 2.904,-11.791 c -0.892,1.305 -0.594,3.129 -3.052,3.129 -1.602,0 -2.385,-1.305 -2.385,-2.496 0,-4.432 6.519,-5.436 6.519,-9.086 0,-2.012 -1.34,-3.203 -3.576,-3.203 -4.767,0 -2.905,4.916 -6.518,4.916 -1.304,0 -2.421,-0.783 -2.421,-2.271 0,-3.65 4.172,-6.891 8.714,-6.891 4.769,0 9.46,2.197 9.46,7.449 10e-4,4.842 -5.55,6.703 -6.741,8.453 z"
       id="path695-4"
       inkscape:connector-curvature="0"
       style="fill:#333333" /></g><path
     style="fill:#333333;fill-opacity:1;fill-rule:evenodd;stroke:none"
     d=""
     id="path7612-5"
     inkscape:connector-curvature="0"
     clip-path="url(#clipPath9180-6)"
     transform="translate(102.43165,106.15259)" /><style
     type="text/css"
     id="style8-59">
      .Border { fill: lightGray; stroke: black; stroke-width: 4; }
      .Label { font-size:24; font-family:Arial; fill:black; }
   </style><style
     type="text/css"
     id="style8-7-7">
      .Border { fill: lightGray; stroke: black; stroke-width: 4; }
      .Label { font-size:24; font-family:Arial; fill:black; }
   </style><style
     type="text/css"
     id="style8-3-1">
      .Border { fill: lightGray; stroke: black; stroke-width: 4; }
      .Label { font-size:24; font-family:Arial; fill:black; }
   </style><style
     type="text/css"
     id="style8-6-74">
      .Border { fill: lightGray; stroke: black; stroke-width: 4; }
      .Label { font-size:24; font-family:Arial; fill:black; }
   </style><style
     id="style8-1-2"
     type="text/css">
      .Border { fill: lightGray; stroke: black; stroke-width: 4; }
      .Label { font-size:24; font-family:Arial; fill:black; }
   </style><style
     id="style8-7-0-0"
     type="text/css">
      .Border { fill: lightGray; stroke: black; stroke-width: 4; }
      .Label { font-size:24; font-family:Arial; fill:black; }
   </style><style
     id="style8-3-2-0"
     type="text/css">
      .Border { fill: lightGray; stroke: black; stroke-width: 4; }
      .Label { font-size:24; font-family:Arial; fill:black; }
   </style><style
     id="style8-6-7-2"
     type="text/css">
      .Border { fill: lightGray; stroke: black; stroke-width: 4; }
      .Label { font-size:24; font-family:Arial; fill:black; }
   </style><g
     id="Help-6"
     transform="matrix(7.7083383,0,0,7.7083383,-5839.6446,-5288.5224)"
     clip-path="url(#clipPath9184-9)"><path
       d="m 509.778,597.159 c -12.427,0 -22.5,10.074 -22.5,22.5 0,12.428 10.073,22.5 22.5,22.5 12.427,0 22.5,-10.072 22.5,-22.5 -10e-4,-12.426 -10.073,-22.5 -22.5,-22.5 z m -0.559,36.414 c -1.676,0 -3.054,-1.379 -3.054,-3.055 0,-1.676 1.378,-3.053 3.054,-3.053 1.677,0 3.054,1.377 3.054,3.053 0,1.676 -1.377,3.055 -3.054,3.055 z m 2.904,-11.791 c -0.892,1.305 -0.594,3.129 -3.052,3.129 -1.602,0 -2.385,-1.305 -2.385,-2.496 0,-4.432 6.519,-5.436 6.519,-9.086 0,-2.012 -1.34,-3.203 -3.576,-3.203 -4.767,0 -2.905,4.916 -6.518,4.916 -1.304,0 -2.421,-0.783 -2.421,-2.271 0,-3.65 4.172,-6.891 8.714,-6.891 4.769,0 9.46,2.197 9.46,7.449 10e-4,4.842 -5.55,6.703 -6.741,8.453 z"
       id="path695-0"
       inkscape:connector-curvature="0"
       style="fill:#333333" /></g><path
     style="fill:#333333;fill-opacity:1;fill-rule:evenodd;stroke:none"
     d=""
     id="path7612-6"
     inkscape:connector-curvature="0"
     clip-path="url(#clipPath9180-9)"
     transform="translate(231.14514,111.18748)" /><path
     style="opacity:1;fill:#666666;fill-opacity:1;fill-rule:nonzero;stroke:#666666;stroke-width:1;paint-order:markers fill stroke"
     d="M 34.892578 14.033203 C 22.916329 14.033203 13.273437 23.674141 13.273438 35.650391 L 13.273438 103.1582 C 13.273438 115.13445 22.916329 124.77539 34.892578 124.77539 L 100.125 124.77539 C 112.10125 124.77539 121.74219 115.13445 121.74219 103.1582 L 121.74219 35.650391 C 121.74219 23.674141 112.10125 14.033203 100.125 14.033203 L 34.892578 14.033203 z M 59.039062 19.435547 C 70.275778 19.435547 79.840817 23.575628 87.734375 31.855469 C 95.627942 40.135309 99.574219 50.168475 99.574219 61.955078 C 99.574219 66.435932 98.925128 70.868497 97.625 75.251953 L 101.94336 79.78125 C 102.87201 80.755341 104.28767 82.290451 106.19141 84.384766 C 108.09514 86.47908 109.55856 88.061304 110.58008 89.132812 C 114.10897 92.834391 115.87305 97.31602 115.87305 102.57617 C 115.87305 107.8363 114.10897 112.34151 110.58008 116.0918 C 107.05119 119.84208 102.77841 121.7168 97.763672 121.7168 C 92.656078 121.7168 88.337479 119.86564 84.808594 116.16406 L 71.714844 102.42969 C 67.257306 103.89083 63.032279 104.62109 59.039062 104.62109 C 47.802359 104.62109 38.213426 100.45745 30.273438 92.128906 C 22.333446 83.800362 18.363281 73.741681 18.363281 61.955078 C 18.363281 50.168475 22.333446 40.135309 30.273438 31.855469 C 38.213426 23.575628 47.802359 19.435547 59.039062 19.435547 z M 59.039062 31.564453 C 51.052642 31.564453 44.203408 34.534558 38.492188 40.476562 C 32.780966 46.418568 29.925781 53.577819 29.925781 61.955078 C 29.925781 70.332327 32.780966 77.517104 38.492188 83.507812 C 44.203408 89.498522 51.052642 92.494141 59.039062 92.494141 C 67.025484 92.494141 73.850835 89.498522 79.515625 83.507812 C 85.180404 77.517104 88.013672 70.332327 88.013672 61.955078 C 88.013672 53.577819 85.180404 46.418568 79.515625 40.476562 C 73.850835 34.534558 67.025484 31.564453 59.039062 31.564453 z M 58.056641 41.851562 C 61.225174 41.851563 63.791016 44.420263 63.791016 47.585938 L 63.791016 56.189453 L 72.392578 56.189453 C 75.563992 56.189453 78.128906 58.761012 78.128906 61.923828 C 78.128906 65.092362 75.561122 67.658203 72.392578 67.658203 L 63.791016 67.658203 L 63.791016 76.261719 C 63.791016 79.430263 61.225174 81.996094 58.056641 81.996094 C 54.890955 81.996094 52.320312 79.430263 52.320312 76.261719 L 52.320312 67.658203 L 43.71875 67.658203 C 40.553075 67.658203 37.984375 65.092362 37.984375 61.923828 C 37.984375 58.758153 40.553075 56.189453 43.71875 56.189453 L 52.320312 56.189453 L 52.320312 47.585938 C 52.320312 44.420263 54.890955 41.851562 58.056641 41.851562 z "
     transform="scale(0.93749995)"
     id="rect860" /></svg>

<svg xmlns="http://www.w3.org/2000/svg" xml:space="preserve" width="136.533" height="136.533" viewBox="0 0 128 128"><defs><clipPath id="b" clipPathUnits="userSpaceOnUse"><ellipse cx="43.981" cy="52.106" rx="43.981" ry="52.026" style="fill:#a9a9a9;fill-opacity:1;fill-rule:evenodd;stroke:none" transform="matrix(1.39939 0 0 1.19072 3.486 1.058)"/></clipPath><clipPath id="a" clipPathUnits="userSpaceOnUse"><ellipse cx="43.981" cy="52.106" rx="43.981" ry="52.026" style="fill:#a9a9a9;fill-opacity:1;fill-rule:evenodd;stroke:none" transform="matrix(.18154 0 0 .15447 788.014 700.64)"/></clipPath><clipPath id="c" clipPathUnits="userSpaceOnUse"><ellipse cx="43.981" cy="52.106" rx="43.981" ry="52.026" style="fill:#a9a9a9;fill-opacity:1;fill-rule:evenodd;stroke:none" transform="matrix(.18154 0 0 .15447 788.014 700.64)"/></clipPath><clipPath id="d" clipPathUnits="userSpaceOnUse"><ellipse cx="43.981" cy="52.106" rx="43.981" ry="52.026" style="fill:#a9a9a9;fill-opacity:1;fill-rule:evenodd;stroke:none" transform="matrix(1.39939 0 0 1.19072 3.486 1.058)"/></clipPath><clipPath id="e" clipPathUnits="userSpaceOnUse"><ellipse cx="43.981" cy="52.106" rx="43.981" ry="52.026" style="fill:#a9a9a9;fill-opacity:1;fill-rule:evenodd;stroke:none" transform="matrix(.18154 0 0 .15447 788.014 700.64)"/></clipPath><clipPath id="f" clipPathUnits="userSpaceOnUse"><ellipse cx="43.981" cy="52.106" rx="43.981" ry="52.026" style="fill:#a9a9a9;fill-opacity:1;fill-rule:evenodd;stroke:none" transform="matrix(1.39939 0 0 1.19072 3.486 1.058)"/></clipPath></defs><g clip-path="url(#a)" transform="matrix(7.70834 0 0 7.70834 -6070.79 -5399.71)"><path d="M509.778 597.159c-12.427 0-22.5 10.074-22.5 22.5 0 12.428 10.073 22.5 22.5 22.5s22.5-10.072 22.5-22.5c-.001-12.426-10.073-22.5-22.5-22.5zm-.559 36.414a3.069 3.069 0 0 1-3.054-3.055 3.067 3.067 0 0 1 3.054-3.053 3.066 3.066 0 0 1 3.054 3.053 3.068 3.068 0 0 1-3.054 3.055zm2.904-11.791c-.892 1.305-.594 3.129-3.052 3.129-1.602 0-2.385-1.305-2.385-2.496 0-4.432 6.519-5.436 6.519-9.086 0-2.012-1.34-3.203-3.576-3.203-4.767 0-2.905 4.916-6.518 4.916-1.304 0-2.421-.783-2.421-2.271 0-3.65 4.172-6.891 8.714-6.891 4.769 0 9.46 2.197 9.46 7.449.001 4.842-5.55 6.703-6.741 8.453z" style="fill:#333"/></g><g clip-path="url(#c)" transform="matrix(7.70834 0 0 7.70834 -5968.358 -5293.557)"><path d="M509.778 597.159c-12.427 0-22.5 10.074-22.5 22.5 0 12.428 10.073 22.5 22.5 22.5s22.5-10.072 22.5-22.5c-.001-12.426-10.073-22.5-22.5-22.5zm-.559 36.414a3.069 3.069 0 0 1-3.054-3.055 3.067 3.067 0 0 1 3.054-3.053 3.066 3.066 0 0 1 3.054 3.053 3.068 3.068 0 0 1-3.054 3.055zm2.904-11.791c-.892 1.305-.594 3.129-3.052 3.129-1.602 0-2.385-1.305-2.385-2.496 0-4.432 6.519-5.436 6.519-9.086 0-2.012-1.34-3.203-3.576-3.203-4.767 0-2.905 4.916-6.518 4.916-1.304 0-2.421-.783-2.421-2.271 0-3.65 4.172-6.891 8.714-6.891 4.769 0 9.46 2.197 9.46 7.449.001 4.842-5.55 6.703-6.741 8.453z" style="fill:#333"/></g><g clip-path="url(#e)" transform="matrix(7.70834 0 0 7.70834 -5839.645 -5288.522)"><path d="M509.778 597.159c-12.427 0-22.5 10.074-22.5 22.5 0 12.428 10.073 22.5 22.5 22.5s22.5-10.072 22.5-22.5c-.001-12.426-10.073-22.5-22.5-22.5zm-.559 36.414a3.069 3.069 0 0 1-3.054-3.055 3.067 3.067 0 0 1 3.054-3.053 3.066 3.066 0 0 1 3.054 3.053 3.068 3.068 0 0 1-3.054 3.055zm2.904-11.791c-.892 1.305-.594 3.129-3.052 3.129-1.602 0-2.385-1.305-2.385-2.496 0-4.432 6.519-5.436 6.519-9.086 0-2.012-1.34-3.203-3.576-3.203-4.767 0-2.905 4.916-6.518 4.916-1.304 0-2.421-.783-2.421-2.271 0-3.65 4.172-6.891 8.714-6.891 4.769 0 9.46 2.197 9.46 7.449.001 4.842-5.55 6.703-6.741 8.453z" style="fill:#333"/></g><path d="M34.893 14.033a21.571 21.571 0 0 0-21.62 21.617v67.508a21.571 21.571 0 0 0 21.62 21.617h65.232a21.57 21.57 0 0 0 21.617-21.617V35.65a21.57 21.57 0 0 0-21.617-21.617H34.893zm24.146 5.403c11.237 0 20.802 4.14 28.695 12.42 7.894 8.28 11.84 18.312 11.84 30.1 0 4.48-.649 8.912-1.949 13.296l4.318 4.53c.929.973 2.345 2.508 4.248 4.603a292.985 292.985 0 0 0 4.39 4.748c3.528 3.701 5.292 8.183 5.292 13.443s-1.764 9.766-5.293 13.516-7.802 5.625-12.816 5.625c-5.108 0-9.427-1.851-12.955-5.553L71.715 102.43c-4.458 1.46-8.683 2.191-12.676 2.191-11.237 0-20.826-4.164-28.766-12.492-7.94-8.329-11.91-18.387-11.91-30.174 0-11.787 3.97-21.82 11.91-30.1 7.94-8.28 17.53-12.42 28.766-12.42zm0 12.128c-7.986 0-14.836 2.97-20.547 8.913-5.711 5.942-8.566 13.1-8.566 21.478 0 8.377 2.855 15.562 8.566 21.553 5.711 5.99 12.56 8.986 20.547 8.986 7.986 0 14.812-2.995 20.477-8.986 5.664-5.99 8.498-13.176 8.498-21.553S85.18 46.42 79.516 40.477c-5.665-5.942-12.49-8.913-20.477-8.913zm-.982 10.288a5.734 5.734 0 0 1 5.734 5.734v8.603h8.602a5.734 5.734 0 1 1 0 11.469H63.79v8.604a5.736 5.736 0 0 1-11.47 0v-8.604h-8.602a5.734 5.734 0 1 1 0-11.469h8.601v-8.603a5.738 5.738 0 0 1 5.737-5.734z" style="opacity:1;fill:#666;fill-opacity:1;fill-rule:nonzero;stroke:#666;stroke-width:1;paint-order:markers fill stroke" transform="scale(.9375)"/></svg>
